images/3235454.svg

<?xml version="1.0" encoding="UTF-8"?>
<svg xmlns="http://www.w3.org/2000/svg" xmlns:xlink="http://www.w3.org/1999/xlink" width="300pt" height="300pt" viewBox="0 0 300 300" version="1.1">
<defs>
<g>
<symbol overflow="visible" id="glyph0-0">
<path style="stroke:none;" d="M 0.59375 2.125 L 0.59375 -8.46875 L 6.59375 -8.46875 L 6.59375 2.125 Z M 1.265625 1.453125 L 5.9375 1.453125 L 5.9375 -7.78125 L 1.265625 -7.78125 Z M 1.265625 1.453125 "/>
</symbol>
<symbol overflow="visible" id="glyph0-1">
<path style="stroke:none;" d="M 1.171875 -8.75 L 2.765625 -8.75 L 6.65625 -1.4375 L 6.65625 -8.75 L 7.796875 -8.75 L 7.796875 0 L 6.203125 0 L 2.328125 -7.3125 L 2.328125 0 L 1.171875 0 Z M 1.171875 -8.75 "/>
</symbol>
<symbol overflow="visible" id="glyph0-2">
<path style="stroke:none;" d="M 4.734375 -7.953125 C 3.867188 -7.953125 3.179688 -7.628906 2.671875 -6.984375 C 2.171875 -6.347656 1.921875 -5.472656 1.921875 -4.359375 C 1.921875 -3.265625 2.171875 -2.394531 2.671875 -1.75 C 3.179688 -1.113281 3.867188 -0.796875 4.734375 -0.796875 C 5.585938 -0.796875 6.265625 -1.113281 6.765625 -1.75 C 7.273438 -2.394531 7.53125 -3.265625 7.53125 -4.359375 C 7.53125 -5.472656 7.273438 -6.347656 6.765625 -6.984375 C 6.265625 -7.628906 5.585938 -7.953125 4.734375 -7.953125 Z M 4.734375 -8.90625 C 5.953125 -8.90625 6.925781 -8.492188 7.65625 -7.671875 C 8.394531 -6.847656 8.765625 -5.742188 8.765625 -4.359375 C 8.765625 -2.984375 8.394531 -1.882812 7.65625 -1.0625 C 6.925781 -0.238281 5.953125 0.171875 4.734375 0.171875 C 3.503906 0.171875 2.519531 -0.238281 1.78125 -1.0625 C 1.039062 -1.882812 0.671875 -2.984375 0.671875 -4.359375 C 0.671875 -5.742188 1.039062 -6.847656 1.78125 -7.671875 C 2.519531 -8.492188 3.503906 -8.90625 4.734375 -8.90625 Z M 4.734375 -8.90625 "/>
</symbol>
<symbol overflow="visible" id="glyph0-3">
<path style="stroke:none;" d="M 1.171875 -8.75 L 6.203125 -8.75 L 6.203125 -7.75 L 2.359375 -7.75 L 2.359375 -5.171875 L 5.828125 -5.171875 L 5.828125 -4.171875 L 2.359375 -4.171875 L 2.359375 0 L 1.171875 0 Z M 1.171875 -8.75 "/>
</symbol>
</g>
</defs>
<g id="surface52537">
<rect x="0" y="0" width="300" height="300" style="fill:rgb(100%,100%,100%);fill-opacity:1;stroke:none;"/>
<path style="fill:none;stroke-width:1.2;stroke-linecap:butt;stroke-linejoin:miter;stroke:rgb(0%,0%,0%);stroke-opacity:1;stroke-miterlimit:10;" d="M 257.285156 218.949219 L 229.296875 226.484375 "/>
<path style="fill:none;stroke-width:1.2;stroke-linecap:butt;stroke-linejoin:miter;stroke:rgb(0%,0%,0%);stroke-opacity:1;stroke-miterlimit:10;" d="M 252.710938 213.117188 L 230.320312 219.148438 "/>
<path style="fill:none;stroke-width:1.2;stroke-linecap:butt;stroke-linejoin:miter;stroke:rgb(0%,0%,0%);stroke-opacity:1;stroke-miterlimit:10;" d="M 264.75 190.941406 L 257.285156 218.949219 "/>
<path style="fill:none;stroke-width:1.2;stroke-linecap:butt;stroke-linejoin:miter;stroke:rgb(0%,0%,0%);stroke-opacity:1;stroke-miterlimit:10;" d="M 229.296875 226.484375 L 208.773438 206.015625 "/>
<path style="fill:none;stroke-width:1.2;stroke-linecap:butt;stroke-linejoin:miter;stroke:rgb(0%,0%,0%);stroke-opacity:1;stroke-miterlimit:10;" d="M 208.773438 206.015625 L 216.238281 178.007812 "/>
<path style="fill:none;stroke-width:1.2;stroke-linecap:butt;stroke-linejoin:miter;stroke:rgb(0%,0%,0%);stroke-opacity:1;stroke-miterlimit:10;" d="M 216.109375 204.972656 L 222.082031 182.566406 "/>
<path style="fill:none;stroke-width:1.2;stroke-linecap:butt;stroke-linejoin:miter;stroke:rgb(0%,0%,0%);stroke-opacity:1;stroke-miterlimit:10;" d="M 216.238281 178.007812 L 244.226562 170.46875 "/>
<path style="fill:none;stroke-width:1.2;stroke-linecap:butt;stroke-linejoin:miter;stroke:rgb(0%,0%,0%);stroke-opacity:1;stroke-miterlimit:10;" d="M 216.238281 178.007812 L 205.976562 167.773438 "/>
<path style="fill:none;stroke-width:1.2;stroke-linecap:butt;stroke-linejoin:miter;stroke:rgb(0%,0%,100%);stroke-opacity:1;stroke-miterlimit:10;" d="M 205.976562 167.773438 L 195.714844 157.539062 "/>
<path style="fill:none;stroke-width:1.2;stroke-linecap:butt;stroke-linejoin:miter;stroke:rgb(0%,0%,0%);stroke-opacity:1;stroke-miterlimit:10;" d="M 244.226562 170.46875 L 264.75 190.941406 "/>
<path style="fill:none;stroke-width:1.2;stroke-linecap:butt;stroke-linejoin:miter;stroke:rgb(0%,0%,0%);stroke-opacity:1;stroke-miterlimit:10;" d="M 241.464844 177.347656 L 257.882812 193.722656 "/>
<path style="fill:none;stroke-width:1.2;stroke-linecap:butt;stroke-linejoin:miter;stroke:rgb(0%,0%,100%);stroke-opacity:1;stroke-miterlimit:10;" d="M 195.714844 157.539062 L 199.449219 143.535156 "/>
<path style="fill:none;stroke-width:1.2;stroke-linecap:butt;stroke-linejoin:miter;stroke:rgb(0%,0%,0%);stroke-opacity:1;stroke-miterlimit:10;" d="M 199.449219 143.535156 L 203.183594 129.53125 "/>
<path style="fill:none;stroke-width:1.2;stroke-linecap:butt;stroke-linejoin:miter;stroke:rgb(0%,0%,0%);stroke-opacity:1;stroke-miterlimit:10;" d="M 167.726562 165.074219 L 181.722656 161.308594 "/>
<path style="fill:none;stroke-width:1.2;stroke-linecap:butt;stroke-linejoin:miter;stroke:rgb(0%,0%,100%);stroke-opacity:1;stroke-miterlimit:10;" d="M 181.722656 161.308594 L 195.714844 157.539062 "/>
<path style=" stroke:none;fill-rule:nonzero;fill:rgb(100%,100%,100%);fill-opacity:1;" d="M 191.714844 150.539062 L 200.714844 150.539062 L 200.714844 164.539062 L 191.714844 164.539062 Z M 191.714844 150.539062 "/>
<g style="fill:rgb(0%,0%,100%);fill-opacity:1;">
  <use xlink:href="#glyph0-1" x="191.714844" y="161.677734"/>
</g>
<path style="fill:none;stroke-width:1.2;stroke-linecap:butt;stroke-linejoin:miter;stroke:rgb(0%,0%,0%);stroke-opacity:1;stroke-miterlimit:10;" d="M 203.183594 129.53125 L 217.175781 125.761719 "/>
<path style="fill:none;stroke-width:1.2;stroke-linecap:butt;stroke-linejoin:miter;stroke:rgb(0%,0%,100%);stroke-opacity:1;stroke-miterlimit:10;" d="M 217.175781 125.761719 L 231.171875 121.992188 "/>
<path style="fill:none;stroke-width:1.2;stroke-linecap:butt;stroke-linejoin:miter;stroke:rgb(0%,0%,0%);stroke-opacity:1;stroke-miterlimit:10;" d="M 204.207031 122.191406 L 215.402344 119.175781 "/>
<path style="fill:none;stroke-width:1.2;stroke-linecap:butt;stroke-linejoin:miter;stroke:rgb(0%,0%,100%);stroke-opacity:1;stroke-miterlimit:10;" d="M 215.402344 119.175781 L 226.597656 116.160156 "/>
<path style="fill:none;stroke-width:1.2;stroke-linecap:butt;stroke-linejoin:miter;stroke:rgb(0%,0%,0%);stroke-opacity:1;stroke-miterlimit:10;" d="M 182.660156 109.058594 L 203.183594 129.53125 "/>
<path style="fill:none;stroke-width:1.2;stroke-linecap:butt;stroke-linejoin:miter;stroke:rgb(0%,0%,100%);stroke-opacity:1;stroke-miterlimit:10;" d="M 231.171875 121.992188 L 234.902344 107.988281 "/>
<path style="fill:none;stroke-width:1.2;stroke-linecap:butt;stroke-linejoin:miter;stroke:rgb(0%,0%,0%);stroke-opacity:1;stroke-miterlimit:10;" d="M 234.902344 107.988281 L 238.636719 93.984375 "/>
<path style=" stroke:none;fill-rule:nonzero;fill:rgb(100%,100%,100%);fill-opacity:1;" d="M 227.171875 114.992188 L 236.171875 114.992188 L 236.171875 128.992188 L 227.171875 128.992188 Z M 227.171875 114.992188 "/>
<g style="fill:rgb(0%,0%,100%);fill-opacity:1;">
  <use xlink:href="#glyph0-1" x="227.171875" y="126.130859"/>
</g>
<path style="fill:none;stroke-width:1.2;stroke-linecap:butt;stroke-linejoin:miter;stroke:rgb(0%,0%,0%);stroke-opacity:1;stroke-miterlimit:10;" d="M 238.636719 93.984375 L 228.375 83.75 "/>
<path style="fill:none;stroke-width:1.2;stroke-linecap:butt;stroke-linejoin:miter;stroke:rgb(0%,0%,100%);stroke-opacity:1;stroke-miterlimit:10;" d="M 228.375 83.75 L 218.113281 73.515625 "/>
<path style="fill:none;stroke-width:1.2;stroke-linecap:butt;stroke-linejoin:miter;stroke:rgb(0%,0%,0%);stroke-opacity:1;stroke-miterlimit:10;" d="M 231.769531 96.765625 L 223.558594 88.578125 "/>
<path style="fill:none;stroke-width:1.2;stroke-linecap:butt;stroke-linejoin:miter;stroke:rgb(0%,0%,100%);stroke-opacity:1;stroke-miterlimit:10;" d="M 223.558594 88.578125 L 215.351562 80.390625 "/>
<path style="fill:none;stroke-width:1.2;stroke-linecap:butt;stroke-linejoin:miter;stroke:rgb(0%,0%,100%);stroke-opacity:1;stroke-miterlimit:10;" d="M 218.113281 73.515625 L 204.121094 77.28125 "/>
<path style="fill:none;stroke-width:1.2;stroke-linecap:butt;stroke-linejoin:miter;stroke:rgb(0%,0%,0%);stroke-opacity:1;stroke-miterlimit:10;" d="M 204.121094 77.28125 L 190.125 81.050781 "/>
<path style=" stroke:none;fill-rule:nonzero;fill:rgb(100%,100%,100%);fill-opacity:1;" d="M 214.113281 66.515625 L 223.113281 66.515625 L 223.113281 80.515625 L 214.113281 80.515625 Z M 214.113281 66.515625 "/>
<g style="fill:rgb(0%,0%,100%);fill-opacity:1;">
  <use xlink:href="#glyph0-1" x="214.113281" y="77.654297"/>
</g>
<path style="fill:none;stroke-width:1.2;stroke-linecap:butt;stroke-linejoin:miter;stroke:rgb(0%,0%,0%);stroke-opacity:1;stroke-miterlimit:10;" d="M 190.125 81.050781 L 182.660156 109.058594 "/>
<path style="fill:none;stroke-width:1.2;stroke-linecap:butt;stroke-linejoin:miter;stroke:rgb(0%,0%,0%);stroke-opacity:1;stroke-miterlimit:10;" d="M 195.96875 85.609375 L 189.996094 108.015625 "/>
<path style="fill:none;stroke-width:1.2;stroke-linecap:butt;stroke-linejoin:miter;stroke:rgb(0%,0%,0%);stroke-opacity:1;stroke-miterlimit:10;" d="M 182.660156 109.058594 L 168.664062 112.828125 "/>
<path style="fill:none;stroke-width:1.2;stroke-linecap:butt;stroke-linejoin:miter;stroke:rgb(0%,0%,100%);stroke-opacity:1;stroke-miterlimit:10;" d="M 168.664062 112.828125 L 154.671875 116.597656 "/>
<path style="fill:none;stroke-width:1.2;stroke-linecap:butt;stroke-linejoin:miter;stroke:rgb(0%,0%,100%);stroke-opacity:1;stroke-miterlimit:10;" d="M 154.671875 116.597656 L 150.9375 130.601562 "/>
<path style="fill:none;stroke-width:1.2;stroke-linecap:butt;stroke-linejoin:miter;stroke:rgb(0%,0%,0%);stroke-opacity:1;stroke-miterlimit:10;" d="M 150.9375 130.601562 L 147.203125 144.605469 "/>
<path style="fill:none;stroke-width:1.2;stroke-linecap:butt;stroke-linejoin:miter;stroke:rgb(0%,0%,100%);stroke-opacity:1;stroke-miterlimit:10;" d="M 160.515625 121.15625 L 157.527344 132.359375 "/>
<path style="fill:none;stroke-width:1.2;stroke-linecap:butt;stroke-linejoin:miter;stroke:rgb(0%,0%,0%);stroke-opacity:1;stroke-miterlimit:10;" d="M 157.527344 132.359375 L 154.542969 143.5625 "/>
<path style=" stroke:none;fill-rule:nonzero;fill:rgb(100%,100%,100%);fill-opacity:1;" d="M 150.671875 109.597656 L 159.671875 109.597656 L 159.671875 123.597656 L 150.671875 123.597656 Z M 150.671875 109.597656 "/>
<g style="fill:rgb(0%,0%,100%);fill-opacity:1;">
  <use xlink:href="#glyph0-1" x="150.671875" y="120.736328"/>
</g>
<path style="fill:none;stroke-width:1.2;stroke-linecap:butt;stroke-linejoin:miter;stroke:rgb(0%,0%,0%);stroke-opacity:1;stroke-miterlimit:10;" d="M 147.203125 144.605469 L 167.726562 165.074219 "/>
<path style="fill:none;stroke-width:1.2;stroke-linecap:butt;stroke-linejoin:miter;stroke:rgb(0%,0%,0%);stroke-opacity:1;stroke-miterlimit:10;" d="M 147.203125 144.605469 L 119.214844 152.144531 "/>
<path style="fill:none;stroke-width:1.2;stroke-linecap:butt;stroke-linejoin:miter;stroke:rgb(0%,0%,0%);stroke-opacity:1;stroke-miterlimit:10;" d="M 164.433594 164.199219 L 160.699219 178.203125 "/>
<path style="fill:none;stroke-width:1.2;stroke-linecap:butt;stroke-linejoin:miter;stroke:rgb(100%,0%,0%);stroke-opacity:1;stroke-miterlimit:10;" d="M 160.699219 178.203125 L 156.964844 192.207031 "/>
<path style="fill:none;stroke-width:1.2;stroke-linecap:butt;stroke-linejoin:miter;stroke:rgb(0%,0%,0%);stroke-opacity:1;stroke-miterlimit:10;" d="M 171.023438 165.953125 L 167.289062 179.957031 "/>
<path style="fill:none;stroke-width:1.2;stroke-linecap:butt;stroke-linejoin:miter;stroke:rgb(100%,0%,0%);stroke-opacity:1;stroke-miterlimit:10;" d="M 167.289062 179.957031 L 163.554688 193.960938 "/>
<path style=" stroke:none;fill-rule:nonzero;fill:rgb(100%,100%,100%);fill-opacity:1;" d="M 155.261719 186.085938 L 165.261719 186.085938 L 165.261719 200.085938 L 155.261719 200.085938 Z M 155.261719 186.085938 "/>
<g style="fill:rgb(100%,0%,0%);fill-opacity:1;">
  <use xlink:href="#glyph0-2" x="155.261719" y="197.224609"/>
</g>
<path style="fill:none;stroke-width:1.2;stroke-linecap:butt;stroke-linejoin:miter;stroke:rgb(0%,0%,0%);stroke-opacity:1;stroke-miterlimit:10;" d="M 119.214844 152.144531 L 98.695312 131.675781 "/>
<path style="fill:none;stroke-width:1.2;stroke-linecap:butt;stroke-linejoin:miter;stroke:rgb(0%,0%,0%);stroke-opacity:1;stroke-miterlimit:10;" d="M 112.347656 154.925781 L 95.929688 138.550781 "/>
<path style="fill:none;stroke-width:1.2;stroke-linecap:butt;stroke-linejoin:miter;stroke:rgb(0%,0%,0%);stroke-opacity:1;stroke-miterlimit:10;" d="M 111.75 180.152344 L 119.214844 152.144531 "/>
<path style="fill:none;stroke-width:1.2;stroke-linecap:butt;stroke-linejoin:miter;stroke:rgb(0%,0%,0%);stroke-opacity:1;stroke-miterlimit:10;" d="M 98.695312 131.675781 L 70.703125 139.210938 "/>
<path style="fill:none;stroke-width:1.2;stroke-linecap:butt;stroke-linejoin:miter;stroke:rgb(0%,0%,0%);stroke-opacity:1;stroke-miterlimit:10;" d="M 70.703125 139.210938 L 63.238281 167.21875 "/>
<path style="fill:none;stroke-width:1.2;stroke-linecap:butt;stroke-linejoin:miter;stroke:rgb(0%,0%,0%);stroke-opacity:1;stroke-miterlimit:10;" d="M 76.546875 143.769531 L 70.574219 166.175781 "/>
<path style="fill:none;stroke-width:1.2;stroke-linecap:butt;stroke-linejoin:miter;stroke:rgb(0%,0%,0%);stroke-opacity:1;stroke-miterlimit:10;" d="M 63.238281 167.21875 L 83.761719 187.691406 "/>
<path style="fill:none;stroke-width:1.2;stroke-linecap:butt;stroke-linejoin:miter;stroke:rgb(0%,0%,0%);stroke-opacity:1;stroke-miterlimit:10;" d="M 63.238281 167.21875 L 49.246094 170.988281 "/>
<path style="fill:none;stroke-width:1.2;stroke-linecap:butt;stroke-linejoin:miter;stroke:rgb(20%,80%,80%);stroke-opacity:1;stroke-miterlimit:10;" d="M 49.246094 170.988281 L 35.25 174.757812 "/>
<path style="fill:none;stroke-width:1.2;stroke-linecap:butt;stroke-linejoin:miter;stroke:rgb(0%,0%,0%);stroke-opacity:1;stroke-miterlimit:10;" d="M 83.761719 187.691406 L 111.75 180.152344 "/>
<path style="fill:none;stroke-width:1.2;stroke-linecap:butt;stroke-linejoin:miter;stroke:rgb(0%,0%,0%);stroke-opacity:1;stroke-miterlimit:10;" d="M 84.785156 180.351562 L 107.175781 174.320312 "/>
<path style=" stroke:none;fill-rule:nonzero;fill:rgb(100%,100%,100%);fill-opacity:1;" d="M 28.25 167.757812 L 35.25 167.757812 L 35.25 181.757812 L 28.25 181.757812 Z M 28.25 167.757812 "/>
<g style="fill:rgb(20%,80%,80%);fill-opacity:1;">
  <use xlink:href="#glyph0-3" x="28.25" y="178.896484"/>
</g>
</g>
</svg>

<svg xmlns="http://www.w3.org/2000/svg" xmlns:xlink="http://www.w3.org/1999/xlink" width="300pt" height="300pt" viewBox="0 0 300 300"><defs><symbol overflow="visible"><path d="M.594 2.125V-8.47h6V2.126zm.672-.672h4.671V-7.78h-4.67zm0 0"/></symbol><symbol overflow="visible" id="a"><path d="M1.172-8.75h1.594l3.89 7.313V-8.75h1.14V0H6.204L2.328-7.313V0H1.172zm0 0"/></symbol><symbol overflow="visible" id="b"><path d="M4.734-7.953c-.867 0-1.554.324-2.062.97-.5.635-.75 1.51-.75 2.624 0 1.094.25 1.965.75 2.61.508.637 1.195.953 2.062.953.852 0 1.532-.316 2.032-.953.507-.645.765-1.516.765-2.61 0-1.113-.257-1.988-.764-2.624-.5-.645-1.18-.97-2.032-.97zm0-.953c1.22 0 2.192.414 2.922 1.234.74.824 1.11 1.93 1.11 3.313 0 1.376-.37 2.477-1.11 3.298C6.926-.24 5.953.17 4.734.17c-1.23 0-2.214-.41-2.953-1.234C1.04-1.882.673-2.984.673-4.36c0-1.382.367-2.488 1.11-3.312.738-.82 1.722-1.234 2.952-1.234zm0 0"/></symbol><symbol overflow="visible" id="c"><path d="M1.172-8.75h5.03v1H2.36v2.578h3.468v1h-3.47V0H1.173zm0 0"/></symbol></defs><g><path fill="#fff" d="M0 0h300v300H0z"/><path d="M257.285 218.95l-27.988 7.534M252.71 213.117l-22.39 6.03M264.75 190.94l-7.465 28.01M229.297 226.484l-20.524-20.468M208.773 206.016l7.465-28.008M216.11 204.973l5.972-22.407M216.238 178.008l27.99-7.54M216.238 178.008l-10.26-10.235" stroke-width="1.2" stroke="#000" stroke-miterlimit="10" fill="none"/><path d="M205.977 167.773l-10.262-10.234" stroke-width="1.2" stroke="#00f" stroke-miterlimit="10" fill="none"/><path d="M244.227 170.47l20.523 20.47M241.465 177.348l16.418 16.375" stroke-width="1.2" stroke="#000" stroke-miterlimit="10" fill="none"/><path d="M195.715 157.54l3.734-14.005" stroke-width="1.2" stroke="#00f" stroke-miterlimit="10" fill="none"/><path d="M199.45 143.535l3.734-14.004M167.727 165.074l13.996-3.765" stroke-width="1.2" stroke="#000" stroke-miterlimit="10" fill="none"/><path d="M181.723 161.31l13.992-3.77" stroke-width="1.2" stroke="#00f" stroke-miterlimit="10" fill="none"/><path d="M191.715 150.54h9v14h-9zm0 0" fill="#fff"/><use xlink:href="#a" x="191.715" y="161.678" fill="#00f"/><path d="M203.184 129.53l13.992-3.768" stroke-width="1.2" stroke="#000" stroke-miterlimit="10" fill="none"/><path d="M217.176 125.762l13.996-3.77" stroke-width="1.2" stroke="#00f" stroke-miterlimit="10" fill="none"/><path d="M204.207 122.19l11.195-3.014" stroke-width="1.2" stroke="#000" stroke-miterlimit="10" fill="none"/><path d="M215.402 119.176l11.196-3.016" stroke-width="1.2" stroke="#00f" stroke-miterlimit="10" fill="none"/><path d="M182.66 109.06l20.524 20.47" stroke-width="1.2" stroke="#000" stroke-miterlimit="10" fill="none"/><path d="M231.172 121.992l3.73-14.004" stroke-width="1.2" stroke="#00f" stroke-miterlimit="10" fill="none"/><path d="M234.902 107.988l3.735-14.004" stroke-width="1.2" stroke="#000" stroke-miterlimit="10" fill="none"/><path d="M227.172 114.992h9v14h-9zm0 0" fill="#fff"/><use xlink:href="#a" x="227.172" y="126.131" fill="#00f"/><path d="M238.637 93.984L228.375 83.75" stroke-width="1.2" stroke="#000" stroke-miterlimit="10" fill="none"/><path d="M228.375 83.75l-10.262-10.234" stroke-width="1.2" stroke="#00f" stroke-miterlimit="10" fill="none"/><path d="M231.77 96.766l-8.21-8.188" stroke-width="1.2" stroke="#000" stroke-miterlimit="10" fill="none"/><path d="M223.56 88.578l-8.208-8.187M218.113 73.516L204.12 77.28" stroke-width="1.2" stroke="#00f" stroke-miterlimit="10" fill="none"/><path d="M204.12 77.28l-13.995 3.77" stroke-width="1.2" stroke="#000" stroke-miterlimit="10" fill="none"/><path d="M214.113 66.516h9v14h-9zm0 0" fill="#fff"/><use xlink:href="#a" x="214.113" y="77.654" fill="#00f"/><path d="M190.125 81.05l-7.465 28.01M195.97 85.61l-5.974 22.406M182.66 109.06l-13.996 3.768" stroke-width="1.2" stroke="#000" stroke-miterlimit="10" fill="none"/><path d="M168.664 112.828l-13.992 3.77M154.672 116.598l-3.734 14.004" stroke-width="1.2" stroke="#00f" stroke-miterlimit="10" fill="none"/><path d="M150.938 130.602l-3.735 14.003" stroke-width="1.2" stroke="#000" stroke-miterlimit="10" fill="none"/><path d="M160.516 121.156l-2.99 11.203" stroke-width="1.2" stroke="#00f" stroke-miterlimit="10" fill="none"/><path d="M157.527 132.36l-2.984 11.202" stroke-width="1.2" stroke="#000" stroke-miterlimit="10" fill="none"/><path d="M150.672 109.598h9v14h-9zm0 0" fill="#fff"/><use xlink:href="#a" x="150.672" y="120.736" fill="#00f"/><path d="M147.203 144.605l20.524 20.47M147.203 144.605l-27.988 7.54M164.434 164.2l-3.735 14.003" stroke-width="1.2" stroke="#000" stroke-miterlimit="10" fill="none"/><path d="M160.7 178.203l-3.735 14.004" stroke-width="1.2" stroke="#f00" stroke-miterlimit="10" fill="none"/><path d="M171.023 165.953l-3.734 14.004" stroke-width="1.2" stroke="#000" stroke-miterlimit="10" fill="none"/><path d="M167.29 179.957l-3.735 14.004" stroke-width="1.2" stroke="#f00" stroke-miterlimit="10" fill="none"/><path d="M155.262 186.086h10v14h-10zm0 0" fill="#fff"/><use xlink:href="#b" x="155.262" y="197.225" fill="#f00"/><path d="M119.215 152.145l-20.52-20.47M112.348 154.926L95.93 138.55M111.75 180.152l7.465-28.007M98.695 131.676l-27.992 7.535M70.703 139.21l-7.465 28.01M76.547 143.77l-5.973 22.406M63.238 167.22l20.524 20.47M63.238 167.22l-13.992 3.768" stroke-width="1.2" stroke="#000" stroke-miterlimit="10" fill="none"/><path d="M49.246 170.988l-13.996 3.77" stroke-width="1.2" stroke="#3cc" stroke-miterlimit="10" fill="none"/><path d="M83.762 187.69l27.988-7.538M84.785 180.352l22.39-6.032" stroke-width="1.2" stroke="#000" stroke-miterlimit="10" fill="none"/><path d="M28.25 167.758h7v14h-7zm0 0" fill="#fff"/><use xlink:href="#c" x="28.25" y="178.896" fill="#3cc"/></g></svg>
